X:1
T:Second alternative not closed before the end of the tune
K:C
M:C
|: C4 E4 |1 G4 B4 :|2 G4 A4
| B8 | c8 | d8 | e8 |

In this example, in lilypond postscript output, the second alternative
line over the staff spans until the end of the tune. This is not
incorrect, but this is not really what I expect: I expect the second
alternative to last as long as the first one.


Gwenael

PS: I have some patches that fix these problems for me. I'll post them
to lilypond-devel.
